packages/Snapp/src/PhoneCallIcon/index.svg

<?xml version="1.0" encoding="UTF-8"?>
<svg width="24px" height="24px" viewBox="0 0 24 24" version="1.1" xmlns="http://www.w3.org/2000/svg" xmlns:xlink="http://www.w3.org/1999/xlink">
    <title>Icons/24/PhoneCall</title>
    <g id="Icons/24/PhoneCall" stroke="none" stroke-width="1" fill="none" fill-rule="evenodd">
        <rect id="Container" fill-opacity="0" fill="#D8D8D8" fill-rule="nonzero" x="0" y="0" width="24" height="24"></rect>
        <path d="M7.46935902,2 C8.84345035,1.98663376 10.0146479,2.9921211 10.2081056,4.35874704 C10.3148891,5.16698832 10.5129227,5.96057617 10.7976603,6.72232493 C11.1737182,7.72101753 10.9331924,8.8468653 10.1781116,9.60910264 L9.51985877,10.2662166 C10.5960563,11.9526509 12.0293551,13.3834694 13.7187125,14.4578043 L14.3805679,13.7971054 C15.1405183,13.0469124 16.2683172,12.8068027 17.266689,13.181443 C18.0318094,13.4664551 18.8267726,13.664146 19.6445392,13.7718518 C21.0209556,13.9656945 22.0333592,15.158499 21.9991588,16.5231962 L21.9991588,19.2592101 C22.0017144,20.0279746 21.6797873,20.7623001 21.1122741,21.2820537 C20.5442621,21.8022641 19.7828743,22.0593132 18.9987818,21.988424 C16.0444334,21.6679653 13.2065738,20.6601835 10.7203019,19.0505884 C8.39891466,17.5780343 6.43078352,15.6133081 4.95998216,13.3026344 C3.3374134,10.8022954 2.32765583,7.95556824 2.01111987,4.97891723 C1.94195869,4.21490609 2.1976493,3.4570545 2.71573241,2.89048805 C3.23381552,2.32392159 3.96658282,2.0008132 4.7358926,2 L7.46935902,2 Z M7.4783083,3.81555267 L4.73674894,3.81555267 C4.47879707,3.81584073 4.23282421,3.92430067 4.05891581,4.11448379 C3.88500741,4.30466692 3.79917805,4.55905999 3.82099985,4.8013605 C4.10597706,7.48028762 5.01908264,10.0545317 6.49064702,12.3222408 C7.82256095,14.4146592 9.59964084,16.1886647 11.7027597,17.5228079 C13.9574477,18.9824353 16.5236731,19.8937542 19.1788564,20.181912 C19.4365593,20.2051617 19.6921394,20.1188763 19.8828078,19.9442538 C20.0734761,19.7696313 20.181562,19.5228554 20.1805117,19.264552 L20.180784,16.5006793 C20.1923582,16.035024 19.852518,15.6346274 19.3986118,15.5706658 C18.4529863,15.4461632 17.5245049,15.215269 16.6288271,14.8816207 C16.2930084,14.7556052 15.9144326,14.8362045 15.6629429,15.0844451 L14.501987,16.2433926 C14.2125363,16.5323426 13.7653614,16.5926062 13.40952,16.3906192 C10.9786483,15.0107787 8.9659227,13.0015352 7.58369088,10.5748689 C7.38135384,10.2196431 7.4417219,9.77324189 7.7311726,9.48429194 L8.8885408,8.32894611 C9.14079946,8.07428984 9.22153836,7.69636904 9.09453619,7.35908334 C8.76107797,6.46700301 8.52978368,5.54012795 8.40620742,4.60448431 C8.34165158,4.14854145 7.94850794,3.81102284 7.4783083,3.81555267 Z M13.8713136,5.91166891 C16.0005573,6.32637514 17.6653765,7.98831421 18.0808014,10.1138742 C18.1609428,10.523925 17.8929223,10.9211918 17.482161,11.0011945 C17.0713996,11.0811973 16.6734443,10.8136405 16.5933029,10.4035897 C16.2960349,8.88259081 15.1047309,7.69334773 13.581096,7.39659406 C13.1703346,7.31659133 12.9023142,6.91932448 12.9824555,6.50927373 C13.0625969,6.09922297 13.4605522,5.83166618 13.8713136,5.91166891 Z M13.8098726,2.2520665 C17.9824642,2.71480597 21.2778472,6.00034996 21.7466401,10.1651371 C21.793372,10.5803067 21.4941111,10.9546862 21.0782221,11.0013373 C20.662333,11.0479884 20.2873046,10.7492452 20.2405727,10.3340756 C19.8508533,6.87178268 17.111318,4.14042683 13.6425371,3.7557398 C13.2265895,3.70961131 12.9268568,3.33560805 12.9730652,2.92038014 C13.0192737,2.50515222 13.3939251,2.20593801 13.8098726,2.2520665 Z" id="Combined-Shape" fill="#404040" fill-rule="nonzero"></path>
    </g>
</svg>

<svg viewBox="0 0 24 24" xmlns="http://www.w3.org/2000/svg" fill="currentColor" focusable="false">
  <path d="M7.47 2a2.738 2.738 0 012.738 2.359c.107.808.305 1.602.59 2.363a2.731 2.731 0 01-.62 2.887l-.658.657a13.705 13.705 0 004.199 4.192l.662-.66a2.74 2.74 0 012.886-.617c.765.285 1.56.483 2.378.59 1.376.195 2.388 1.387 2.354 2.752v2.736a2.73 2.73 0 01-.887 2.023 2.75 2.75 0 01-2.113.706 19.012 19.012 0 01-8.279-2.937 18.71 18.71 0 01-5.76-5.748 18.96 18.96 0 01-2.949-8.324 2.73 2.73 0 01.705-2.089A2.74 2.74 0 014.736 2h2.733zm.008 1.816H4.737a.92.92 0 00-.916.985 17.141 17.141 0 002.67 7.521 16.912 16.912 0 005.212 5.2 17.186 17.186 0 007.476 2.66.92.92 0 001.002-.917V16.5a.916.916 0 00-.782-.93 12.67 12.67 0 01-2.77-.69.918.918 0 00-.966.203l-1.161 1.16a.91.91 0 01-1.092.147 15.522 15.522 0 01-5.826-5.816.907.907 0 01.147-1.09L8.89 8.328a.917.917 0 00.206-.97 12.586 12.586 0 01-.689-2.755.92.92 0 00-.928-.788zm6.393 2.096a5.324 5.324 0 014.21 4.202.757.757 0 01-1.488.29 3.81 3.81 0 00-3.012-3.007.757.757 0 11.29-1.485zm-.061-3.66a8.977 8.977 0 017.937 7.913.757.757 0 01-1.506.17 7.463 7.463 0 00-6.598-6.58.757.757 0 11.167-1.503z" fill="none"/>
</svg>
